assets/svg/icon_channel_owner.svg

<svg width="24" height="24" viewBox="0 0 24 24" fill="none" xmlns="http://www.w3.org/2000/svg">
<g id="icon/channel_owner">
<path id="Vector" fill-rule="evenodd" clip-rule="evenodd" d="M11.0983 3H12.9017C13.6719 2.99998 14.314 2.99996 14.8239 3.0684C15.362 3.14066 15.8478 3.29959 16.2381 3.68948C16.6286 4.07936 16.7877 4.56455 16.8601 5.10194C16.9149 5.50862 16.9258 5.99964 16.9281 6.57275C17.5664 6.69272 18.1125 6.91871 18.5586 7.36422C19.0745 7.87946 19.2964 8.5282 19.4001 9.2987C19.5 10.0408 19.5 10.9844 19.5 12.1551V13.1404C19.5 14.1407 19.5 14.9405 19.4326 15.5918C19.3629 16.2655 19.2169 16.8345 18.8919 17.3596C18.567 17.8847 18.1227 18.2695 17.5505 18.6331C16.9974 18.9845 16.281 19.3423 15.3851 19.7896L15.3541 19.8051C15.3052 19.8295 15.257 19.8536 15.2092 19.8774C13.8454 20.5591 12.9631 21 12 21C11.0369 21 10.1546 20.5591 8.79076 19.8774C8.74306 19.8536 8.69479 19.8295 8.6459 19.8051L8.61488 19.7896C7.71903 19.3423 7.00264 18.9845 6.44946 18.6331C5.87735 18.2695 5.43303 17.8847 5.10807 17.3596C4.78311 16.8345 4.63716 16.2655 4.56741 15.5918C4.49998 14.9405 4.49999 14.1407 4.5 13.1404V12.1551C4.49998 10.9844 4.49997 10.0408 4.59987 9.2987C4.70361 8.5282 4.92551 7.87946 5.44144 7.36422C5.88754 6.91871 6.43359 6.69272 7.07197 6.57275C7.07417 5.99964 7.08518 5.50862 7.13992 5.10194C7.21227 4.56455 7.37142 4.07936 7.76182 3.68948C8.15223 3.29959 8.63805 3.14066 9.17616 3.0684C9.68597 2.99996 10.3281 2.99998 11.0983 3ZM8.35854 6.44595C8.90613 6.42401 9.53097 6.42401 10.2387 6.42402H13.7613C14.469 6.42401 15.0939 6.42401 15.6415 6.44595C15.6381 5.94759 15.6262 5.5732 15.5859 5.27303C15.5326 4.87802 15.4407 4.70896 15.3291 4.59741C15.2174 4.48586 15.0481 4.39407 14.6525 4.34097C14.2385 4.28538 13.6834 4.28401 12.8571 4.28401H11.1429C10.3166 4.28401 9.76151 4.28538 9.34748 4.34097C8.95194 4.39407 8.78266 4.48586 8.67096 4.59741C8.55926 4.70896 8.46735 4.87802 8.41418 5.27303C8.37376 5.5732 8.36197 5.94759 8.35854 6.44595ZM7.54982 7.79633C6.92087 7.88077 6.5878 8.03524 6.35058 8.27215C6.11336 8.50906 5.95869 8.84168 5.87413 9.46979C5.78708 10.1164 5.78571 10.9733 5.78571 12.2021V13.1057C5.78571 14.1485 5.78651 14.8821 5.84631 15.4598C5.90458 16.0227 6.01467 16.3822 6.20176 16.6845C6.38886 16.9869 6.66163 17.246 7.13967 17.5497C7.63029 17.8615 8.28694 18.1902 9.22089 18.6566C10.7835 19.4368 11.3781 19.716 12 19.716C12.6219 19.716 13.2165 19.4368 14.7791 18.6566C15.7131 18.1902 16.3697 17.8615 16.8603 17.5497C17.3384 17.246 17.6111 16.9869 17.7982 16.6845C17.9853 16.3822 18.0954 16.0227 18.1537 15.4598C18.2135 14.8821 18.2143 14.1485 18.2143 13.1057V12.2021C18.2143 10.9733 18.2129 10.1164 18.1259 9.46979C18.0413 8.84168 17.8867 8.50906 17.6494 8.27215C17.4122 8.03524 17.0792 7.88077 16.4502 7.79633C15.8027 7.7094 14.9446 7.70803 13.7143 7.70803H10.2857C9.05536 7.70803 8.19726 7.7094 7.54982 7.79633ZM12 11.3756C11.9502 11.4617 11.8947 11.5609 11.8294 11.6779L11.7452 11.8288C11.7393 11.8395 11.7329 11.8512 11.7261 11.8637C11.6588 11.9866 11.5473 12.1902 11.3614 12.3311C11.1717 12.475 10.9434 12.5244 10.8099 12.5534C10.7966 12.5563 10.7841 12.5589 10.7728 12.5615L10.6092 12.5985C10.459 12.6325 10.3367 12.6601 10.2321 12.6864C10.3002 12.7699 10.3885 12.8738 10.5034 13.008L10.615 13.1383C10.6229 13.1475 10.6316 13.1574 10.6407 13.168C10.7332 13.2744 10.8825 13.4463 10.9516 13.6681C11.0199 13.8873 10.9964 14.113 10.9815 14.2554C10.98 14.2697 10.9786 14.283 10.9774 14.2955L10.9605 14.4694C10.9449 14.6305 10.9328 14.7591 10.9247 14.8637C11.014 14.8244 11.1156 14.7777 11.2363 14.7222L11.3895 14.6518C11.4001 14.6469 11.4117 14.6415 11.4241 14.6356C11.5471 14.5776 11.7611 14.4769 12 14.4769C12.2389 14.4769 12.4529 14.5776 12.5759 14.6356C12.5883 14.6415 12.5999 14.6469 12.6105 14.6518L12.7637 14.7222C12.8844 14.7777 12.986 14.8244 13.0753 14.8637C13.0672 14.7591 13.0551 14.6305 13.0395 14.4694L13.0226 14.2955C13.0214 14.2831 13.02 14.2697 13.0185 14.2554C13.0036 14.113 12.9801 13.8873 13.0484 13.6681C13.1175 13.4463 13.2668 13.2744 13.3593 13.168C13.3685 13.1574 13.3771 13.1475 13.385 13.1383L13.4966 13.008C13.6115 12.8738 13.6998 12.7699 13.7679 12.6864C13.6633 12.6601 13.541 12.6325 13.3908 12.5985L13.2272 12.5615C13.2159 12.5589 13.2034 12.5563 13.1901 12.5534C13.0566 12.5244 12.8283 12.475 12.6386 12.3311C12.4527 12.1902 12.3412 11.9866 12.2739 11.8637C12.2671 11.8512 12.2607 11.8395 12.2548 11.8288L12.1706 11.6779C12.1053 11.5609 12.0498 11.4617 12 11.3756ZM11.1544 10.3185C11.302 10.1261 11.57 9.84804 12 9.84804C12.43 9.84804 12.698 10.1261 12.8456 10.3185C12.9864 10.5022 13.1283 10.7564 13.2737 11.0172C13.2803 11.029 13.2869 11.0409 13.2935 11.0527L13.3779 11.2037C13.3974 11.2387 13.4127 11.2663 13.4262 11.2898C13.4496 11.2953 13.4769 11.3015 13.5109 11.3092L13.6745 11.3461C13.688 11.3491 13.7013 11.3522 13.7148 11.3552C13.9958 11.4186 14.275 11.4816 14.4893 11.566C14.7261 11.6592 15.0469 11.8406 15.1705 12.2377C15.292 12.6278 15.1387 12.9583 15.0048 13.1706C14.8809 13.3672 14.6926 13.587 14.4999 13.812C14.4911 13.8221 14.4824 13.8323 14.4737 13.8425L14.3621 13.9728C14.3325 14.0073 14.3103 14.0334 14.2916 14.0559C14.2941 14.087 14.2976 14.1232 14.3023 14.1716L14.3192 14.3455C14.3205 14.3588 14.3217 14.3719 14.323 14.3852C14.3523 14.6864 14.3806 14.9776 14.3703 15.2105C14.3594 15.4546 14.3007 15.8242 13.9688 16.0758C13.6264 16.3354 13.2483 16.2789 13.0086 16.2102C12.7876 16.147 12.5266 16.0269 12.2637 15.9059C12.2511 15.9001 12.2385 15.8944 12.2259 15.8885L12.0728 15.8181C12.0441 15.8049 12.0206 15.7941 12 15.7848C11.9794 15.7941 11.9559 15.8049 11.9272 15.8181L11.7741 15.8885C11.7615 15.8944 11.7489 15.9001 11.7363 15.9059C11.4734 16.0269 11.2123 16.147 10.9914 16.2102C10.7517 16.2789 10.3736 16.3354 10.0312 16.0758C9.69934 15.8242 9.64065 15.4546 9.62977 15.2105C9.61938 14.9776 9.64769 14.6864 9.67698 14.3852C9.67827 14.3719 9.67956 14.3588 9.68085 14.3455L9.69771 14.1716C9.70241 14.1232 9.70591 14.087 9.70847 14.0559C9.6897 14.0334 9.66742 14.0073 9.63787 13.9728L9.52631 13.8425C9.51759 13.8323 9.50886 13.8221 9.50015 13.8119C9.30736 13.587 9.11907 13.3672 8.99517 13.1706C8.86129 12.9583 8.70801 12.6278 8.82948 12.2377C8.95313 11.8406 9.27396 11.6592 9.51065 11.566C9.72501 11.4816 10.0043 11.4186 10.2852 11.3552C10.2987 11.3522 10.312 11.3491 10.3255 11.3461L10.4891 11.3092C10.5231 11.3015 10.5504 11.2953 10.5738 11.2898C10.5873 11.2663 10.6026 11.2387 10.6221 11.2037L10.7065 11.0527C10.7131 11.0409 10.7197 11.029 10.7263 11.0172C10.8717 10.7564 11.0136 10.5022 11.1544 10.3185Z" fill="#0166FF"/>
</g>
</svg>

<svg xmlns="http://www.w3.org/2000/svg" width="24" height="24" fill="none"><path fill="#0166FF" fill-rule="evenodd" d="M11.098 3h1.804c.77 0 1.412 0 1.922.068.538.073 1.024.232 1.414.621.39.39.55.876.622 1.413.055.407.066.898.068 1.47.638.12 1.185.347 1.63.792.517.515.738 1.164.842 1.935.1.742.1 1.685.1 2.856v.985c0 1 0 1.8-.067 2.452-.07.673-.216 1.242-.541 1.768-.325.525-.77.91-1.341 1.273-.554.352-1.27.71-2.166 1.157l-.03.015-.146.072C13.845 20.56 12.963 21 12 21s-1.845-.44-3.21-1.123l-.144-.072-.031-.015c-.896-.448-1.612-.805-2.166-1.157-.572-.363-1.016-.748-1.34-1.273-.326-.526-.472-1.094-.542-1.768C4.5 14.94 4.5 14.14 4.5 13.14v-.985c0-1.17 0-2.114.1-2.856.104-.77.326-1.42.841-1.935.447-.445.993-.671 1.631-.791.002-.573.013-1.064.068-1.471.072-.537.231-1.023.622-1.413.39-.39.876-.548 1.414-.62C9.686 3 10.328 3 11.098 3m-2.74 3.446a49 49 0 0 1 1.88-.022h3.523c.708 0 1.333 0 1.88.022-.003-.498-.015-.873-.055-1.173-.053-.395-.145-.564-.257-.676-.112-.111-.28-.203-.677-.256-.413-.056-.969-.057-1.795-.057h-1.714c-.826 0-1.381.001-1.796.057-.395.053-.564.145-.676.256s-.204.281-.257.676c-.04.3-.052.675-.055 1.173m-.808 1.35c-.63.085-.962.24-1.2.476-.237.237-.391.57-.476 1.198-.087.646-.088 1.503-.088 2.732v.904c0 1.043 0 1.776.06 2.354.059.563.169.922.356 1.224.187.303.46.562.938.866.49.311 1.147.64 2.08 1.107 1.563.78 2.158 1.059 2.78 1.059s1.217-.28 2.78-1.06c.933-.466 1.59-.794 2.08-1.106.478-.304.751-.563.938-.866.187-.302.297-.661.356-1.224.06-.578.06-1.312.06-2.354v-.904c0-1.229-.001-2.086-.088-2.732-.085-.628-.24-.96-.477-1.198-.237-.237-.57-.391-1.199-.476-.647-.087-1.505-.088-2.736-.088h-3.428c-1.23 0-2.089.001-2.736.088m4.45 3.58q-.074.128-.17.302l-.085.15-.019.036c-.067.123-.179.326-.365.467-.19.144-.418.193-.551.222l-.037.008-.164.037c-.15.034-.272.062-.377.088.068.084.157.188.271.322l.112.13.026.03c.092.106.242.278.31.5.069.22.045.445.03.587l-.004.04-.017.174c-.015.162-.027.29-.035.395l.311-.142.153-.07.035-.016c.123-.058.337-.16.576-.16s.453.102.576.16q.018.008.034.016l.154.07q.179.083.311.142l-.035-.395-.017-.173-.005-.04c-.014-.143-.038-.369.03-.588.07-.222.219-.394.311-.5q.015-.015.026-.03l.112-.13c.114-.134.203-.238.27-.322-.104-.026-.226-.053-.376-.088l-.164-.037-.037-.008c-.133-.029-.362-.078-.551-.222-.186-.14-.298-.344-.365-.467l-.02-.035-.083-.151q-.098-.174-.171-.302m-.846-1.057c.148-.193.416-.471.846-.471s.698.278.846.47c.14.184.282.438.428.7l.02.035.084.15.048.087.085.02.164.036.04.01c.28.063.56.126.774.21.237.093.558.275.681.672.122.39-.031.72-.165.933-.124.196-.312.416-.505.641l-.026.03-.112.13-.07.084.01.116.017.173.004.04c.03.301.058.593.047.825-.01.245-.07.614-.401.866-.343.26-.72.203-.96.134a6 6 0 0 1-.745-.304l-.038-.018-.153-.07-.073-.033-.073.033-.153.07-.038.018a6 6 0 0 1-.745.304c-.24.069-.617.125-.96-.134-.332-.252-.39-.621-.401-.866-.01-.232.018-.524.047-.825l.004-.04.017-.173.01-.116-.07-.083-.112-.13-.026-.031a6 6 0 0 1-.505-.641c-.134-.213-.287-.543-.166-.933.124-.397.445-.579.682-.672.214-.084.493-.147.774-.21l.04-.01.164-.037.085-.02.048-.085.085-.151.02-.036c.145-.26.287-.515.427-.698" clip-rule="evenodd"/></svg>
